svgs/sharp-regular/1.svg

<svg xmlns="http://www.w3.org/2000/svg" viewBox="0 0 256 512"><!--! Font Awesome Pro 6.6.0 by @fontawesome - https://fontawesome.com License - https://fontawesome.com/license (Commercial License) Copyright 2024 Fonticons, Inc. --><path d="M112.7 32l7.3 0 8 0 24 0 0 24 0 376 80 0 24 0 0 48-24 0-104 0L24 480 0 480l0-48 24 0 80 0 0-336.5L13.3 156 0 164.8l0-57.7L106.7 36l6-4z"/></svg>

<svg xmlns="http://www.w3.org/2000/svg" viewBox="0 0 256 512"><!--! Font Awesome Pro 6.4.2 by @fontawesome - https://fontawesome.com License - https://fontawesome.com/license (Commercial License) Copyright 2023 Fonticons, Inc. --><path d="M112.7 32H120h8 24V56 432h80 24v48H232 128 24 0V432H24h80V95.5L13.3 156 0 164.8V107.2L106.7 36l6-4z"/></svg>
